X:34
L:1
K:A
d2A B|dB FG F,G/2|G2 dA|GF GF|Be f3|d2 dB|G2 AB|e2^ce/2f/2d/2 FG|G3 F2|EF FC|
EF G,2


*****************************


200 1 2.3489485 

<start>tuven
df/g/b/2 | "Pahc.d ~| cGEG ~: | [C}ocroinse:2-
<end>
<start>
